app/dist/common/images/citic-pacific-spec.svg

<svg height="18" viewBox="0 0 18 18" width="18" xmlns="http://www.w3.org/2000/svg"><path d="m0 0h18v18h-18z" fill="#f0f3fa"/><g fill="#cb2031"><path d="m7.47 6.36c-2.01.28-3.47 1.13-3.47 2.44 0 1.64 2.24 2.55 5 2.55s5-.91 5-2.55c0-1.32-1.47-2.17-3.5-2.45v.19c1.27.32 2.17 1.08 2.17 2.2 0 1.52-1.65 2.38-3.67 2.38s-3.67-.86-3.67-2.38c0-1.11.89-1.87 2.14-2.2z"/><path d="m7.53 5h.88v6.2l-.88-.14zm0 6.35.88.05v2.6h-.88zm2.06-6.35h.88v6.06l-.88.09zm0 6.42.88-.07v2.65h-.88z"/><path d="m10.47 4.59v-.59h-2.94v.59h1.03v6.62h.88v-6.62zm-1.91 6.91h.88v2.5h-.88z"/></g></svg>

<!-- by TradingView --><svg width="18" height="18" viewBox="0 0 18 18" xmlns="http://www.w3.org/2000/svg"><path fill="#F0F3FA" d="M0 0h18v18H0z"/><path d="M7.47 6.36C5.46 6.64 4 7.49 4 8.8c0 1.64 2.24 2.55 5 2.55s5-.91 5-2.55c0-1.32-1.47-2.17-3.5-2.45v.19c1.27.32 2.17 1.08 2.17 2.2 0 1.52-1.65 2.38-3.67 2.38s-3.67-.86-3.67-2.38c0-1.11.89-1.87 2.14-2.2v-.18Z" fill="#CB2031"/><path d="M7.53 5h.88v6.2l-.88-.14V5ZM7.53 11.35l.88.05V14h-.88v-2.65ZM9.59 5h.88v6.06l-.88.09V5ZM9.59 11.42l.88-.07V14h-.88v-2.58Z" fill="#CB2031"/><path d="M10.47 4.59V4H7.53v.59h1.03v6.62h.88V4.59h1.03ZM8.56 11.5h.88V14h-.88v-2.5Z" fill="#CB2031"/></svg>
